icons/glyphs/glyph-battery.svg

<?xml version="1.0" encoding="UTF-8" standalone="no"?><svg height="16" viewBox="0 0 4.2333333 4.2333333" width="16" xmlns="http://www.w3.org/2000/svg"><sodipodi:namedview/><metadata><rdf:RDF><cc:Work><dc:format>image/svg+xml</dc:format><dc:type/><dc:title/></cc:Work></rdf:RDF></metadata><path d="m .16760415.93661184c-.0930563 0-.1676042.07454816-.1676042.16760416v2.0249015c0 .093056.07454801.167604.1676042.167604h3.65468155c.093056 0 .1676044-.074548.1676044-.167604v-.7295712h.1509192c.05115 0 .092524-.041374.092524-.092524v-.3807114c0-.051151-.041373-.092524-.092524-.092524h-.1509192v-.7295709c0-.093056-.074548-.16760417-.1676044-.16760417zm1.82999515.54224896 1.3233905.8304371h-1.3233905v.4451749l-1.32339065-.8198196 1.32339065-.021235z" fill="#d0d0d0" stroke-linejoin="round" stroke-width=".310637"/></svg>

<?xml version="1.0" encoding="UTF-8" standalone="no"?>
<!-- Created with Inkscape (http://www.inkscape.org/) -->

<svg
   xmlns:dc="http://purl.org/dc/elements/1.1/"
   xmlns:cc="http://creativecommons.org/ns#"
   xmlns:rdf="http://www.w3.org/1999/02/22-rdf-syntax-ns#"
   xmlns:svg="http://www.w3.org/2000/svg"
   xmlns="http://www.w3.org/2000/svg"
   xmlns:sodipodi="http://sodipodi.sourceforge.net/DTD/sodipodi-0.dtd"
   xmlns:inkscape="http://www.inkscape.org/namespaces/inkscape"
   width="16"
   height="16"
   viewBox="0 0 4.2333333 4.2333333"
   version="1.1"
   id="svg8"
   inkscape:version="0.92+devel (0526f3edb8, 2017-07-23, custom)"
   sodipodi:docname="glyph-battery.svg">
  <defs
     id="defs2">
    <style
       id="current-color-scheme">      .ColorScheme-Text {
        color:#d0d0d0;
        stop-color:#d0d0d0;
      }
      .ColorScheme-Background {
        color:#212121;
        stop-color:#212121;
      }
      .ColorScheme-Highlight {
        color:#0039a9;
        stop-color:#0039a9;
      }
      .ColorScheme-ViewText {
        color:#d0d0d0;
        stop-color:#d0d0d0;
      }
      .ColorScheme-ViewBackground {
        color:#19191b;
        stop-color:#19191b;
      }
      .ColorScheme-ViewHover {
        color:#005cc7;
        stop-color:#005cc7;
      }
      .ColorScheme-ViewFocus{
        color:#002466;
        stop-color:#002466;
      }
      .ColorScheme-ButtonText {
        color:#d0d0d0;
        stop-color:#d0d0d0;
      }
      .ColorScheme-ButtonBackground {
        color:#232323;
        stop-color:#232323;                             
      }                                                 
      .ColorScheme-ButtonHover {                        
        color:#005cc7;                                  
        stop-color:#005cc7;                             
      }                                                 
      .ColorScheme-ButtonFocus{                         
        color:#0039a9;                                  
        stop-color:#0039a9;                             
      }</style>
  </defs>
  <sodipodi:namedview
     id="base"
     pagecolor="#002466"
     bordercolor="#ffffff"
     borderopacity="0.38039216"
     inkscape:pageopacity="1"
     inkscape:pageshadow="2"
     inkscape:zoom="27.375"
     inkscape:cx="11.24922"
     inkscape:cy="5.8600249"
     inkscape:document-units="px"
     inkscape:current-layer="svg8"
     inkscape:document-rotation="0"
     showgrid="false"
     inkscape:showpageshadow="false"
     borderlayer="true"
     inkscape:window-width="1920"
     inkscape:window-height="1051"
     inkscape:window-x="0"
     inkscape:window-y="0"
     inkscape:window-maximized="1"
     units="px" />
  <metadata
     id="metadata5">
    <rdf:RDF>
      <cc:Work
         rdf:about="">
        <dc:format>image/svg+xml</dc:format>
        <dc:type
           rdf:resource="http://purl.org/dc/dcmitype/StillImage" />
        <dc:title></dc:title>
      </cc:Work>
    </rdf:RDF>
  </metadata>
  <path
     style="fill:#d0d0d0;stroke-width:0.31063655;stroke-linejoin:round"
     d="M 0.16760415,0.93661184 C 0.07454785,0.93661184 -4.5e-8,1.01116 -4.5e-8,1.104216 v 2.0249015 c 0,0.093056 0.074548005,0.167604 0.167604195,0.167604 H 3.8222857 c 0.093056,0 0.1676044,-0.074548 0.1676044,-0.167604 V 2.3995463 h 0.1509192 c 0.05115,0 0.092524,-0.041374 0.092524,-0.092524 V 1.9263109 c 0,-0.051151 -0.041373,-0.092524 -0.092524,-0.092524 H 3.9898901 V 1.104216 c 0,-0.093056 -0.074548,-0.16760417 -0.1676044,-0.16760417 z M 1.9975993,1.4788608 3.3209898,2.3092979 H 1.9975993 V 2.7544728 L 0.67420865,1.9346532 1.9975993,1.9134182 Z"
     id="rect811"
     inkscape:connector-curvature="0" />
</svg>
